X: 42420
T: West End, The
R: hornpipe
M: 4/4
K: Dmajor
|:A>G|F>DF>A d2 d2|c>de>f g2 g2|f>af>d e>ge>d|c2 A2 A2 A>G|
F>DF>A d2 d2|c>de>f g2 g2|f>af>d e>ge>c|d2 d2 d2:|
|:f>g|a>fd>f a>fd>f|g>ec>e g>ec>e|a>fd>f a>fd>f|e2 A2 A2 A>G|
F>DF>A d2 d2|c>de>f g2 g2|f>af>d e>ge>c|d2 d2 d2:|

